no-image.svg

<svg height="32" viewBox="0 0 32 32" width="32" xmlns="http://www.w3.org/2000/svg"><path d="m30 3.4141-1.4141-1.4141-26.5859 26.5859 1.4141 1.4141 2-2h20.5859a2.0027 2.0027 0 0 0 2-2v-20.5859zm-4 22.5859h-18.5859l7.7929-7.793 2.3788 2.3787a2 2 0 0 0 2.8284 0l1.5858-1.5857 4 3.9973zm0-5.8318-2.5858-2.5859a2 2 0 0 0 -2.8284 0l-1.5858 1.5859-2.377-2.3771 9.377-9.377z"/><path d="m6 22v-3l5-4.9966 1.3733 1.3733 1.4159-1.416-1.375-1.375a2 2 0 0 0 -2.8284 0l-3.5858 3.5859v-10.1716h16v-2h-16a2.002 2.002 0 0 0 -2 2v16z"/><path d="m0 0h32v32h-32z" fill="none"/></svg>

<?xml version="1.0" encoding="utf-8"?>
<!-- Generator: Adobe Illustrator 27.5.0, SVG Export Plug-In . SVG Version: 6.00 Build 0)  -->
<svg version="1.1" id="Layer_1" xmlns="http://www.w3.org/2000/svg" xmlns:xlink="http://www.w3.org/1999/xlink" x="0px" y="0px"
	 viewBox="0 0 32 32" style="enable-background:new 0 0 32 32;" xml:space="preserve">
<style type="text/css">
	.st0{fill:#E6E6E6;}
	.st1{fill:none;}
</style>
<path class="st0" d="M30,3.4L28.6,2L2,28.6L3.4,30l2-2H26c1.1,0,2-0.9,2-2V5.4L30,3.4z M26,26H7.4l7.8-7.8l2.4,2.4
	c0.8,0.8,2,0.8,2.8,0L22,19l4,4V26z M26,20.2l-2.6-2.6c-0.8-0.8-2-0.8-2.8,0L19,19.2l-2.4-2.4L26,7.4V20.2z"/>
<path class="st0" d="M6,22v-3l5-5l1.4,1.4l1.4-1.4l-1.4-1.4c-0.8-0.8-2-0.8-2.8,0L6,16.2V6h16V4H6C4.9,4,4,4.9,4,6v16L6,22z"/>
<path class="st1" d="M0,0h32v32H0V0z"/>
</svg>
